X: 585
T:An Buachaillin Ban
T:Fair Headed Boy (The)
M:6/8
L:1/8
R:Jig
D:Harry Bradley ( Bad Turns and Horseshoe Bends )
Z:Pat Higgins
Z:Turned into useable abc Steve Mansfield 05 October 2002
K:Em
|E2A AGA|B2d dBd|ege dBG|1 BAB GED:||2 BAG A2G:||
|e2a aga|d2g gfg|ege dBG|BAB GED|e2a aga|d2g gfg|ege dBG|BAG ABd||
|e2a aga|d2g gfg|e3 dBG|BAB GED|E2A AGA|B2d dBd|ege dBG|BAG A2G||

